img/begin__answer.svg

<svg width="24" height="18" viewBox="0 0 24 18" fill="none" xmlns="http://www.w3.org/2000/svg">
<path d="M8.8323 18C8.46361 18 8.10952 17.8555 7.84804 17.5971L0.407851 10.2449C-0.13595 9.70772 -0.13595 8.83652 0.407851 8.29908C0.951354 7.76165 1.83317 7.76135 2.37667 8.29908L8.77512 14.6215L21.569 0.459471C22.081 -0.106808 22.961 -0.156843 23.5349 0.349394C24.1085 0.855631 24.1585 1.72536 23.6463 2.29223L9.87076 17.5403C9.61584 17.8225 9.2543 17.9885 8.87161 17.9994C8.85851 17.9997 8.8454 18 8.8323 18Z" fill="black"/>
</svg>

<svg width="24" height="18" fill="none" xmlns="http://www.w3.org/2000/svg"><path d="M8.832 18a1.4 1.4 0 01-.984-.403l-7.44-7.352a1.364 1.364 0 010-1.946 1.403 1.403 0 011.969 0l6.398 6.322L21.57.46a1.404 1.404 0 011.966-.11c.573.507.623 1.376.111 1.943L9.871 17.54a1.4 1.4 0 01-1.039.46z" fill="#000"/></svg>
